X: 6
T:Second Morris
M:4/4
L:1/4
S:Ashby tune to Badby Dance
Z:Bill Johnsto
K:G
D|GGA B/2c/2| d/2B/2c/2A/2 B/2G/2E/2D/2|GGA B/2c/2|d/2B/"c/2A/2:||: g g/
2g/2 ff| e f/2g/2a/2f/2 d|g g/2g/2 ff|ef g2| g g/2g/2 ff|e f/2g/2 a/2f/2
 d| g B/2B/2 ce| d/2c/2B/2A/2 G:|
